vendor/shopware/storefront/Resources/app/storefront/dist/assets/icon/default/sort-up.svg

<svg xmlns="http://www.w3.org/2000/svg" width="24" height="24" viewBox="0 0 24 24">
  <path fill="#758CA3" fill-rule="evenodd" d="M3,21 C2.44771525,21 2,20.5522847 2,20 C2,19.4477153 2.44771525,19 3,19 L21,19 C21.5522847,19 22,19.4477153 22,20 C22,20.5522847 21.5522847,21 21,21 L3,21 Z M3,17 C2.44771525,17 2,16.5522847 2,16 C2,15.4477153 2.44771525,15 3,15 L18,15 C18.5522847,15 19,15.4477153 19,16 C19,16.5522847 18.5522847,17 18,17 L3,17 Z M3,13 C2.44771525,13 2,12.5522847 2,12 C2,11.4477153 2.44771525,11 3,11 L15,11 C15.5522847,11 16,11.4477153 16,12 C16,12.5522847 15.5522847,13 15,13 L3,13 Z M3,9 C2.44771525,9 2,8.55228475 2,8 C2,7.44771525 2.44771525,7 3,7 L12,7 C12.5522847,7 13,7.44771525 13,8 C13,8.55228475 12.5522847,9 12,9 L3,9 Z M3,5 C2.44771525,5 2,4.55228475 2,4 C2,3.44771525 2.44771525,3 3,3 L9,3 C9.55228475,3 10,3.44771525 10,4 C10,4.55228475 9.55228475,5 9,5 L3,5 Z"/>
</svg>

<svg xmlns="http://www.w3.org/2000/svg" width="24" height="24" viewBox="0 0 24 24"><path fill="#758CA3" fill-rule="evenodd" d="M3 21c-.5523 0-1-.4477-1-1s.4477-1 1-1h18c.5523 0 1 .4477 1 1s-.4477 1-1 1H3zm0-4c-.5523 0-1-.4477-1-1s.4477-1 1-1h15c.5523 0 1 .4477 1 1s-.4477 1-1 1H3zm0-4c-.5523 0-1-.4477-1-1s.4477-1 1-1h12c.5523 0 1 .4477 1 1s-.4477 1-1 1H3zm0-4c-.5523 0-1-.4477-1-1s.4477-1 1-1h9c.5523 0 1 .4477 1 1s-.4477 1-1 1H3zm0-4c-.5523 0-1-.4477-1-1s.4477-1 1-1h6c.5523 0 1 .4477 1 1s-.4477 1-1 1H3z"/></svg>
